X: 1005
T: Her Makamın Nağmesinde
C: Ahmet Avni Konuk
O: Turkey
F: http://compmusic.upf.edu/node/140
N: bendihisar--kupe--yuruksemai_ii--her--ahmet_avni_konuk
N: makam= bendihisar
N: form= kupe
N: usul= yuruksemai_ii = 6/8
M: 6/8
L: 1/16
K: C ^g ^d  
Q: 1/4=120
%%MIDI tuningsystem comma53
^3/4d4 f2e6  | f3e ^3/4d2e2 d2z2  | e4 f2^3/4d2 d2e2  | \
w:  Her  ma ka  |  mın   |  nağ me sin  | 
c2^3/4d2 c2cB A4  | ^3/4d4 f2e6  | 
w:  de   |  ay rı  ay  | 
e2f2 ^3/4g2a2 gfe2  | b2a2 ^3/4g2g2 f2fe  | \
w:  rı   |  neş *  *  *  *  e   | 
e8-e2z2  | e4 b2a6  | b2a2 ^3/4g2f2 e4  | 
w:  var    |  Him met_ i   |  dil  | 
e2e2 f2^3/4d2 d2e2  | c2^3/4d2 c2cB A4  | \
w:  le  *  a çıl  |  dı   | 
_B4 B2B2 A2A=G  | =G2_7/8BA AGFE =D4  | 
w:  bir  de  bu   |  Bend_  | 
F2E2 =D2^3/4C2 D2ED  | =D8-=D2z2  | |


